src/assets/svg/pen.svg

<svg fill="none" height="14" viewBox="0 0 14 14" width="14" xmlns="http://www.w3.org/2000/svg"><path d="m6.94058 3.22007 3.84002 3.84001-5.26666 5.27332c-.24667.2466-.56002.4066-.90002.4666l-3.16.5267c-.04.0066-.07332.0067-.11332.0067-.17333 0-.346681-.0734-.473347-.2001-.153334-.1533-.226652-.3732-.193319-.5866l.526656-3.15996c.06-.34.22-.6534.46667-.90007zm5.59332-1.75342c-.5133-.519996-1.1933-.799963-1.92-.799963-.72665 0-1.40665.279967-1.91999.799963l-.80664.80665 3.84003 3.84.8066-.80664c.52-.51333.8-1.19325.8-1.91992s-.28-1.40675-.8-1.92009z" fill="#8c90a0"/></svg>

<svg width="14" height="14" viewBox="0 0 14 14" fill="none" xmlns="http://www.w3.org/2000/svg">
<path d="M6.94058 3.22007L10.7806 7.06008L5.51394 12.3334C5.26727 12.58 4.95392 12.74 4.61392 12.8L1.45392 13.3267C1.41392 13.3333 1.3806 13.3334 1.3406 13.3334C1.16727 13.3334 0.993919 13.26 0.867253 13.1333C0.713919 12.98 0.640601 12.7601 0.673934 12.5467L1.20059 9.38674C1.26059 9.04674 1.42059 8.73334 1.66726 8.48667L6.94058 3.22007ZM12.5339 1.46665C12.0206 0.946654 11.3406 0.666687 10.6139 0.666687C9.88725 0.666687 9.20725 0.946654 8.69391 1.46665L7.88727 2.2733L11.7273 6.1133L12.5339 5.30666C13.0539 4.79333 13.3339 4.11341 13.3339 3.38674C13.3339 2.66007 13.0539 1.97999 12.5339 1.46665Z" fill="#8C90A0"/>
</svg>
